X: 13414
T: Flitter Daunse
R: reel
M: 4/4
K: Aminor
cA AG Ae ed|cA AG A2 (3ABc|d2 dc B2 BA|GA BG E2 AB|
cA AG Ae ed|cA AG A2 (3ABc|d2 (3BcB A2 G2|A4 A3B|
ce ed e2 (3efg|ae ed e2 (3efg|ae ed e2 ed|(3cde cA B3B|
ce ed e2 (3efg|ae ed e2 (3efg|a2 (3ege d2 c2|BA GB A2||

